Easy-Camper/img/priority/01.svg

<svg width="32" height="32" viewBox="0 0 32 32" fill="none" xmlns="http://www.w3.org/2000/svg">
<path d="M4 6.66669H12V14.6667H4V6.66669ZM6.66667 9.33335V12H9.33333V9.33335H6.66667ZM14.6667 9.33335H28V12H14.6667V9.33335ZM14.6667 20H28V22.6667H14.6667V20ZM6.66667 26.6667L2 22L3.88 20.12L6.66667 22.8934L12.7867 16.7867L14.6667 18.6667L6.66667 26.6667Z" fill="#22262A"/>
</svg>

<svg width="32" height="32" fill="none" xmlns="http://www.w3.org/2000/svg"><path d="M4 6.667h8v8H4v-8zm2.667 2.666V12h2.666V9.333H6.667zm8 0H28V12H14.667V9.333zm0 10.667H28v2.667H14.667V20zm-8 6.667L2 22l1.88-1.88 2.787 2.773 6.12-6.106 1.88 1.88-8 8z" fill="#22262A"/></svg>
